icon/cg/bowl.svg

<svg viewBox="0 0 24 24" fill="none" xmlns="http://www.w3.org/2000/svg" height="1em" width="1em">
  <path fill-rule="evenodd" clip-rule="evenodd" d="M20.5468 3.67162C20.1563 3.28109 19.5231 3.28109 19.1326 3.67162L13.7687 9.03555H2V11.0356H2.00842C2.22563 16.3663 6.61591 20.6213 12 20.6213C17.3841 20.6213 21.7744 16.3663 21.9916 11.0356H22V9.03555H16.5971L20.5468 5.08583C20.9374 4.69531 20.9374 4.06214 20.5468 3.67162ZM14.1762 11.0356C14.1806 11.0356 14.1851 11.0356 14.1896 11.0356H19.9895C19.7739 15.2613 16.2793 18.6213 12 18.6213C7.72066 18.6213 4.22609 15.2613 4.01054 11.0356H14.1762Z" fill="currentColor"/>
</svg>

<svg width="24" height="24" fill="none" xmlns="http://www.w3.org/2000/svg"><path fill-rule="evenodd" clip-rule="evenodd" d="M20.547 3.672a1 1 0 0 0-1.414 0l-5.364 5.364H2v2h.008c.218 5.33 4.608 9.585 9.992 9.585 5.384 0 9.774-4.255 9.992-9.585H22v-2h-5.403l3.95-3.95a1 1 0 0 0 0-1.414Zm-6.37 7.364h5.813a8 8 0 0 1-15.98 0h10.166Z" fill="currentColor"/></svg>
